X:12
T:Saint Patrick's Day
R:set dance
H:see also march#3
Z:id:hn-setdance-12
M:6/8
K:G
~G3 GBd | gfe dBG | cBc AFD | EFE E2D | ~G3 GBd |
gfe dBG |1 cBc AFD | E2F G2D :|2 cde dBG | E2F G2B ||
|: def gag | fed e2B | def gag | fed e2B | def gbg |
fed efg | GAG GBd | gfe dBG | cBc AFD | EFG AFD |
GAG GBd | gfe dBG | cde dBG |1 E2F G2B :|2 E2F G2D ||
P:version 2
|: GAG GAB | ded dBG | AGA BGD | EFE E2D |
GAG GAB | d2e dBG | AGA BGD |1 E2F G2D :|2 E2F G2B ||
|: def g2e | fed edB | def g2e | fed e2d | def g2e |
fed efg | GAG GAB | d2e dBG | AGA BGD | EFE E2D |
GAG GAB | ded dBG | AGA BGD |1 E2F G2B :|2 E2F G2D ||
<end>
<start>
